src/images/how-it-works-3.svg

<svg width="124" height="122" viewBox="0 0 124 122" fill="none" xmlns="http://www.w3.org/2000/svg">
<path d="M75.1001 99.8C75.7001 103.4 77.4001 106.9 80.4001 108.8C82.4001 110.1 84.8001 110.6 87.1001 110.9C92.2001 111.7 97.4001 112.2 102.7 112.2C106.9 112.2 111 112.8 114.7 110.2C117 108.6 118.7 106 119.4 103.3C119.8 101.6 119.9 99.8 119.8 98C119.7 95.9 119.5 93.7 119.3 91.6C112.2 90.7 104.6 91.5 97.4001 91.1C90.2001 90.7 83.0001 90 75.8001 89.2C75.6001 89.2 75.3001 89.2 75.3001 89.4C75.3001 89.6 74.5001 96.2 75.1001 99.8Z" fill="#D9D9D9" stroke="#1B383C" stroke-width="2" stroke-miterlimit="10"/>
<path d="M72.9 86V85.7C72.9 85.1 73.4 84.7 74 84.7L82.1 85.2C82.1 85.2 82.1 85.2 82.1 85.1C82 84.1 82.9 83.3 83.8 83.1C84.7 82.9 85.7 83 86.6 83.2C94 84.5 101.5 83.6 109 83.5C110.3 83.5 111.6 83.5 112.8 84C113.7 84.4 115.2 85.9 115.4 87.2L121.5 87.6C122.1 87.6 122.5 88.1 122.5 88.7L122.3 91.6C122.3 92.2 121.8 92.6 121.2 92.6L73.7 89.8C73.1 89.8 72.7 89.3 72.8 88.7C72.8 87.6 73 87 72.9 86Z" fill="#FF9820" stroke="#1B383C" stroke-width="2" stroke-miterlimit="10"/>
<path d="M62.0004 84.2C63.3004 87 65.4004 89.5 68.2004 90.4C70.1004 91 72.1004 90.9 74.1004 90.7C78.5004 90.3 82.8004 89.5 87.1004 88.5C90.5004 87.6 94.0004 87.2 96.5004 84.3C98.0004 82.5 98.9004 80 98.9004 77.6C98.9004 76.1 98.5004 74.6 98.1004 73.2C97.6004 71.5 96.9004 69.8 96.3004 68.1C90.3004 68.9 84.3004 71.2 78.3004 72.4C72.3004 73.6 66.3004 74.6 60.3004 75.4C60.1004 75.4 59.9004 75.5 59.9004 75.7C59.9004 75.8 60.8004 81.5 62.0004 84.2Z" fill="#D9D9D9" stroke="#1B383C" stroke-width="2" stroke-miterlimit="10"/>
<path d="M57.3004 73.4V73.2C57.2004 72.7 57.5004 72.2 58.0004 72.2L64.7004 70.9C64.4004 70.1 65.0004 69.3 65.7004 68.9C66.4004 68.5 67.2004 68.5 68.0004 68.4C74.3004 67.9 80.3004 65.5 86.4004 63.8C87.4004 63.5 88.5004 63.2 89.6004 63.4C90.5004 63.5 92.0004 64.5 92.4004 65.5L97.5004 64.5C98.0004 64.4 98.4004 64.7 98.5004 65.2L98.9004 67.6C99.0004 68.1 98.7004 68.5 98.2004 68.6L58.8004 76.5C58.3004 76.6 57.9004 76.3 57.8004 75.8C57.5004 74.8 57.6004 74.2 57.3004 73.4Z" fill="#FF9820" stroke="#1B383C" stroke-width="2" stroke-miterlimit="10"/>
<path d="M2.99994 103.4C3.49994 107 5.09994 110.5 7.99994 112.6C9.89994 113.9 12.2999 114.5 14.5999 115C19.6999 116 24.8999 116.6 30.0999 116.8C34.2999 117 38.3999 117.7 42.1999 115.2C44.5999 113.6 46.3999 111.2 47.1999 108.4C47.6999 106.7 47.7999 104.9 47.7999 103.1C47.7999 101 47.5999 98.8 47.4999 96.7C40.4999 95.6 32.7999 96.1 25.5999 95.5C18.3999 94.9 11.1999 93.9 4.09994 92.9C3.89994 92.9 3.59994 92.9 3.49994 93.1C3.49994 93.2 2.59994 99.8 2.99994 103.4Z" fill="#D9D9D9" stroke="#1B383C" stroke-width="2" stroke-miterlimit="10"/>
<path d="M1.30018 89.6V89.3C1.40018 88.7 1.90018 88.3 2.40018 88.3L10.5002 89C10.5002 89 10.5002 89 10.5002 88.9C10.5002 87.9 11.4002 87.1 12.3002 86.9C13.2002 86.7 14.2002 86.9 15.1002 87.1C22.4002 88.6 30.0002 88 37.5002 88.1C38.8002 88.1 40.1002 88.2 41.3002 88.7C42.2002 89.1 43.6002 90.7 43.8002 92L49.9002 92.6C50.5002 92.6 50.9002 93.2 50.8002 93.7L50.5002 96.6C50.4002 97.2 49.9002 97.6 49.4002 97.6L1.90018 93.3C1.30018 93.2 0.900178 92.7 1.00018 92.2C1.10018 91.2 1.40018 90.6 1.30018 89.6Z" fill="#FF9820" stroke="#1B383C" stroke-width="2" stroke-miterlimit="10"/>
<path d="M42.5 111.9C43.8 115.3 46.2 118.3 49.6 119.6C51.8 120.4 54.2 120.4 56.6 120.3C61.8 120 67 119.4 72.1 118.3C76.2 117.4 80.4 117.2 83.4 113.8C85.3 111.7 86.5 108.9 86.6 106C86.7 104.2 86.3 102.4 85.9 100.7C85.4 98.6 84.7 96.6 84 94.6C76.9 95.2 69.6 97.6 62.5 98.8C55.4 99.9 48.2 100.8 41 101.5C40.8 101.5 40.5 101.6 40.5 101.8C40.5 101.8 41.2 108.5 42.5 111.9Z" fill="#D9D9D9" stroke="#1B383C" stroke-width="2" stroke-miterlimit="10"/>
<path d="M37.5002 98.8V98.5C37.4002 97.9 37.8002 97.4 38.4002 97.3L46.4002 96.1C46.4002 96.1 46.4002 96.1 46.4002 96C46.1002 95.1 46.8002 94.1 47.7002 93.7C48.5002 93.3 49.5002 93.3 50.4002 93.2C57.9002 92.9 65.1002 90.5 72.4002 88.7C73.7002 88.4 74.9002 88.1 76.2002 88.4C77.2002 88.6 78.9002 89.8 79.4002 91L85.5002 90.1C86.1002 90 86.6002 90.4 86.7002 91L87.1002 93.9C87.2002 94.5 86.8002 95 86.2002 95.1L39.2002 102.4C38.6002 102.5 38.1002 102.1 38.0002 101.5C37.7002 100.4 37.8002 99.8 37.5002 98.8Z" fill="#FF9820" stroke="#1B383C" stroke-width="2" stroke-miterlimit="10"/>
<path d="M25.3003 83.5C25.9003 87.1 27.6003 90.6 30.6003 92.5C32.6003 93.8 35.0003 94.3 37.3003 94.6C42.4003 95.4 47.6003 95.9 52.9003 95.9C57.1003 95.9 61.2003 96.5 64.9003 93.9C67.2003 92.3 68.9003 89.7 69.6003 87C70.0003 85.3 70.1003 83.5 70.0003 81.7C69.9003 79.6 69.7003 77.4 69.5003 75.3C62.4003 74.4 54.8003 75.2 47.6003 74.8C40.4003 74.4 33.2003 73.7 26.0003 72.9C25.8003 72.9 25.5003 72.9 25.5003 73.1C25.5003 73.3 24.7003 80 25.3003 83.5Z" fill="#D9D9D9" stroke="#1B383C" stroke-width="2" stroke-miterlimit="10"/>
<path d="M23.1002 69.7V69.4C23.1002 68.8 23.6002 68.4 24.2002 68.4L32.3002 68.9C32.3002 68.9 32.3002 68.9 32.3002 68.8C32.2002 67.8 33.1002 67 34.0002 66.8C34.9002 66.6 35.9002 66.7 36.8002 66.9C44.2002 68.2 51.7002 67.3 59.2002 67.2C60.5002 67.2 61.8002 67.2 63.0002 67.7C63.9002 68.1 65.4002 69.6 65.6002 70.9L71.7002 71.3C72.3002 71.3 72.7002 71.8 72.7002 72.4L72.5002 75.3C72.5002 75.9 72.0002 76.3 71.4002 76.3L23.9002 73.5C23.3002 73.5 22.9002 73 23.0002 72.4C23.0002 71.3 23.2002 70.7 23.1002 69.7Z" fill="#FF9820" stroke="#1B383C" stroke-width="2" stroke-miterlimit="10"/>
<path d="M30.3003 29.9C31.9003 34.4 34.8003 38.6 39.1003 40.5C42.0003 41.7 45.2003 41.9 48.3003 41.9C55.2003 41.9 62.1003 41.3 68.9003 40.3C74.4003 39.4 79.9003 39.3 84.1003 35.1C86.8003 32.5 88.4003 28.8 88.8003 25C89.0003 22.6 88.7003 20.3 88.2003 18C87.7003 15.2 86.9003 12.5 86.1003 9.79999C76.7003 10.2 66.9003 12.9 57.5003 13.9C48.0003 14.9 38.5003 15.6 29.0003 16C28.7003 16 28.4003 16.1 28.3003 16.4C28.2003 16.6 28.7003 25.4 30.3003 29.9Z" fill="#D9D9D9" stroke="#1B383C" stroke-width="2" stroke-miterlimit="10"/>
<path d="M24.4001 12.4V12C24.3001 11.2 24.9001 10.5 25.6001 10.5L36.3001 9.39999V9.29999C36.0001 8.09999 37.0001 6.79999 38.1001 6.29999C39.2001 5.79999 40.5001 5.79999 41.7001 5.79999C51.6001 5.89999 61.3001 3.19999 71.0001 1.39999C72.7001 1.09999 74.4001 0.799994 76.0001 1.19999C77.3001 1.49999 79.5001 3.19999 80.0001 4.79999L88.2001 3.99999C89.0001 3.89999 89.6001 4.49999 89.7001 5.19999L90.0001 8.99999C90.1001 9.79999 89.5001 10.4 88.8001 10.5L26.3001 17.1C25.6001 17.2 24.9001 16.6 24.8001 15.8C24.6001 14.5 24.8001 13.7 24.4001 12.4Z" fill="#FF9820" stroke="#1B383C" stroke-width="2" stroke-miterlimit="10"/>
<path d="M44.8002 31.1C45.1002 32.2 45.7002 33.2 46.5002 34C47.3002 34.8 48.5002 35.4 49.5002 35C49.9002 34.8 50.3002 34.5 50.6002 34.2C52.6002 32.2 54.2002 29.7 54.1002 26.9C54.0002 24.3 51.3002 20.2 48.3002 21.4C45.4002 22.7 44.1002 28.4 44.8002 31.1Z" fill="white" stroke="#1B383C" stroke-width="2" stroke-miterlimit="10"/>
<path d="M60.8001 30.7C61.1001 31.6 61.4001 32.4 62.1001 33C63.3001 34 65.0001 33.9 66.5001 33.4C67.0001 33.2 67.6001 33 68.0001 32.6C68.8001 31.9 68.9001 30.7 69.0001 29.7C69.2001 27.7 69.4001 25.6 68.9001 23.6C68.1001 20.4 63.8001 17.2 61.1001 20.6C59.2001 22.9 60.0001 28.2 60.8001 30.7Z" fill="white" stroke="#1B383C" stroke-width="2" stroke-miterlimit="10"/>
<path d="M47.7001 27.7C48.2001 27.2 49.0001 27 49.7001 27C50.3001 27 50.9001 27.1 51.3001 27.5C51.8001 27.9 51.9001 28.6 51.9001 29.3C52.0001 30.3 52.0001 31.5 51.4001 32.2C50.5001 33.2 48.5001 34.4 47.5001 33.2C46.5001 32 46.5001 28.8 47.7001 27.7Z" fill="#1B383C" stroke="#1B383C" stroke-width="2" stroke-miterlimit="10"/>
<path d="M62.5003 30.6C62.2003 29.3 62.0003 27.7 62.9003 26.8C63.5003 26.3 64.3003 26.1 65.0003 26.1C65.6003 26.1 66.3003 26.2 66.8003 26.5C67.5003 26.9 67.9003 27.7 68.1003 28.5C68.3003 29.3 68.2003 30.1 68.2003 30.9C68.2003 31.1 68.2003 31.4 68.1003 31.6C68.0003 31.9 67.7003 32.1 67.4003 32.2C65.0003 33.7 63.2003 33.4 62.5003 30.6Z" fill="#1B383C" stroke="#1B383C" stroke-width="2" stroke-miterlimit="10"/>
<path d="M30.4004 29.8C24.8004 34.3 20.7004 40.5 18.8004 47.4C16.9004 54.3 17.2004 61.8 19.6004 68.5" stroke="#1B383C" stroke-width="2" stroke-miterlimit="10"/>
<path d="M89.1001 21.8C98.7001 27.6 106.4 36.5 110.6 47C114.8 57.5 115.5 69.2 112.5 80" stroke="#1B383C" stroke-width="2" stroke-miterlimit="10"/>
<path d="M49.7003 41.8C49.4003 49.9 49.6003 58.1 50.4003 66.2" stroke="#1B383C" stroke-width="2" stroke-miterlimit="10"/>
<path d="M66.4004 41.5C66.7004 50 67.7004 58.4 69.3004 66.8" stroke="#1B383C" stroke-width="2" stroke-miterlimit="10"/>
</svg>

<svg width="124" height="122" fill="none" xmlns="http://www.w3.org/2000/svg"><path d="M75.1001 99.8c.6 3.6 2.3 7.1 5.3 9 2 1.3 4.4 1.8 6.7 2.1 5.1.8 10.3 1.3 15.5999 1.3 4.2 0 8.3.6 12-2 2.3-1.6 4-4.2 4.7-6.9.4-1.7.5-3.5.4-5.3-.1-2.1-.3-4.3-.5-6.4-7.1-.9-14.7-.1-21.8999-.5-7.2-.4-14.4-1.1-21.6-1.9-.2 0-.5 0-.5.2s-.8 6.8-.2 10.4Z" fill="#D9D9D9" stroke="#1B383C" stroke-width="2" stroke-miterlimit="10"/><path d="M72.9 86v-.3c0-.6.5-1 1.1-1l8.1.5v-.1c-.1-1 .8-1.8 1.7-2 .9-.2 1.9-.1 2.8.1 7.4 1.3 14.9.4 22.4.3 1.3 0 2.6 0 3.8.5.9.4 2.4 1.9 2.6 3.2l6.1.4c.6 0 1 .5 1 1.1l-.2 2.9c0 .6-.5 1-1.1 1l-47.5-2.8c-.6 0-1-.5-.9-1.1 0-1.1.2-1.7.1-2.7Z" fill="#FF9820" stroke="#1B383C" stroke-width="2" stroke-miterlimit="10"/><path d="M62.0004 84.2c1.3 2.8 3.4 5.3 6.2 6.2 1.9.6 3.9.5 5.9.3 4.4-.4 8.7-1.2 13-2.2 3.4-.9 6.9-1.3 9.4-4.2 1.5-1.8 2.4-4.3 2.4-6.7 0-1.5-.4-3-.8-4.4-.5-1.7-1.2-3.4-1.8-5.1-6 .8-12 3.1-18 4.3-6 1.2-12 2.2-18 3-.2 0-.4.1-.4.3 0 .1.9 5.8 2.1 8.5Z" fill="#D9D9D9" stroke="#1B383C" stroke-width="2" stroke-miterlimit="10"/><path d="M57.3004 73.4v-.2c-.1-.5.2-1 .7-1l6.7-1.3c-.3-.8.3-1.6 1-2 .7-.4 1.5-.4 2.3-.5 6.3-.5 12.3-2.9 18.4-4.6 1-.3 2.1-.6 3.2-.4.9.1 2.4 1.1 2.8 2.1l5.1-1c.5-.1.9.2 1 .7l.4 2.4c.1.5-.2.9-.7 1l-39.4 7.9c-.5.1-.9-.2-1-.7-.3-1-.2-1.6-.5-2.4Z" fill="#FF9820" stroke="#1B383C" stroke-width="2" stroke-miterlimit="10"/><path d="M3 103.4c.5 3.6 2.1 7.1 5 9.2 1.9 1.3 4.2999 1.9 6.5999 2.4 5.1 1 10.3 1.6 15.5 1.8 4.2.2 8.3.9 12.1-1.6 2.4-1.6 4.2-4 5-6.8.5-1.7.6-3.5.6-5.3 0-2.1-.2-4.3-.3-6.4-7-1.1-14.7-.6-21.9-1.2-7.2-.6-14.4-1.6-21.5-2.6-.2 0-.5 0-.6.2 0 .1-.9 6.7-.5 10.3Z" fill="#D9D9D9" stroke="#1B383C" stroke-width="2" stroke-miterlimit="10"/><path d="M1.3002 89.6v-.3c.1-.6.6-1 1.1-1l8.1.7v-.1c0-1 .9-1.8 1.8-2 .9-.2 1.9 0 2.8.2 7.3 1.5 14.9.9 22.4 1 1.3 0 2.6.1 3.8.6.9.4 2.3 2 2.5 3.3l6.1.6c.6 0 1 .6.9 1.1l-.3 2.9c-.1.6-.6 1-1.1 1l-47.5-4.3c-.6-.1-1-.6-.9-1.1.1-1 .4-1.6.3-2.6Z" fill="#FF9820" stroke="#1B383C" stroke-width="2" stroke-miterlimit="10"/><path d="M42.5 111.9c1.3 3.4 3.7 6.4 7.1 7.7 2.2.8 4.6.8 7 .7 5.2-.3 10.4-.9 15.5-2 4.1-.9 8.3-1.1 11.3-4.5 1.9-2.1 3.1-4.9 3.2-7.8.1-1.8-.3-3.6-.7-5.3-.5-2.1-1.2-4.1-1.9-6.1-7.1.6-14.4 3-21.5 4.2-7.1 1.1-14.3 2-21.5 2.7-.2 0-.5.1-.5.3 0 0 .7 6.7 2 10.1Z" fill="#D9D9D9" stroke="#1B383C" stroke-width="2" stroke-miterlimit="10"/><path d="M37.5002 98.8v-.3c-.1-.6.3-1.1.9-1.2l8-1.2V96c-.3-.9.4-1.9 1.3-2.3.8-.4 1.8-.4 2.7-.5 7.5-.3 14.7-2.7 22-4.5 1.3-.3 2.5-.6 3.8-.3 1 .2 2.7 1.4 3.2 2.6l6.1-.9c.6-.1 1.1.3 1.2.9l.4 2.9c.1.6-.3 1.1-.9 1.2l-47 7.3c-.6.1-1.1-.3-1.2-.9-.3-1.1-.2-1.7-.5-2.7Z" fill="#FF9820" stroke="#1B383C" stroke-width="2" stroke-miterlimit="10"/><path d="M25.3003 83.5c.6 3.6 2.3 7.1 5.3 9 2 1.3 4.4 1.8 6.7 2.1 5.1.8 10.3 1.3 15.6 1.3 4.2 0 8.3.6 12-2 2.3-1.6 4-4.2 4.7-6.9.4-1.7.5-3.5.4-5.3-.1-2.1-.3-4.3-.5-6.4-7.1-.9-14.7-.1-21.9-.5-7.2-.4-14.4-1.1-21.6-1.9-.2 0-.5 0-.5.2s-.8 6.9-.2 10.4Z" fill="#D9D9D9" stroke="#1B383C" stroke-width="2" stroke-miterlimit="10"/><path d="M23.1002 69.7v-.3c0-.6.5-1 1.1-1l8.1.5v-.1c-.1-1 .8-1.8 1.7-2 .9-.2 1.9-.1 2.8.1 7.4 1.3 14.9.4 22.4.3 1.3 0 2.6 0 3.8.5.9.4 2.4 1.9 2.6 3.2l6.1.4c.6 0 1 .5 1 1.1l-.2 2.9c0 .6-.5 1-1.1 1l-47.5-2.8c-.6 0-1-.5-.9-1.1 0-1.1.2-1.7.1-2.7Z" fill="#FF9820" stroke="#1B383C" stroke-width="2" stroke-miterlimit="10"/><path d="M30.3003 29.9c1.6 4.5 4.5 8.7 8.8 10.6 2.9 1.2 6.1 1.4 9.2 1.4 6.9 0 13.8-.6 20.6-1.6 5.5-.9 11-1 15.2-5.2 2.7-2.6 4.3-6.3 4.7-10.1.2-2.4-.1-4.7-.6-7-.5-2.8-1.3-5.5-2.1-8.2-9.4.4-19.2 3.1-28.6 4.1-9.5 1-19 1.7-28.5 2.1-.3 0-.6.1-.7.4-.1.2.4 9 2 13.5Z" fill="#D9D9D9" stroke="#1B383C" stroke-width="2" stroke-miterlimit="10"/><path d="M24.4001 12.4V12c-.1-.8.5-1.5 1.2-1.5l10.7-1.1v-.1c-.3-1.2.7-2.5 1.8-3s2.4-.5 3.6-.5c9.9.1 19.6-2.6 29.3-4.4 1.7-.3 3.4-.6 5-.2 1.3.3 3.5 2 4 3.6l8.2-.8c.8-.1 1.4.5 1.5 1.2l.3 3.8c.1.8-.5 1.4-1.2 1.5l-62.5 6.6c-.7.1-1.4-.5-1.5-1.3-.2-1.3 0-2.1-.4-3.4Z" fill="#FF9820" stroke="#1B383C" stroke-width="2" stroke-miterlimit="10"/><path d="M44.8002 31.1c.3 1.1.9 2.1 1.7 2.9.8.8 2 1.4 3 1 .4-.2.8-.5 1.1-.8 2-2 3.6-4.5 3.5-7.3-.1-2.6-2.8-6.7-5.8-5.5-2.9 1.3-4.2 7-3.5 9.7ZM60.8001 30.7c.3.9.6 1.7 1.3 2.3 1.2 1 2.9.9 4.4.4.5-.2 1.1-.4 1.5-.8.8-.7.9-1.9 1-2.9.2-2 .4-4.1-.1-6.1-.8-3.2-5.1-6.4-7.8-3-1.9 2.3-1.1 7.6-.3 10.1Z" fill="#fff" stroke="#1B383C" stroke-width="2" stroke-miterlimit="10"/><path d="M47.7001 27.7c.5-.5 1.3-.7 2-.7.6 0 1.2.1 1.6.5.5.4.6 1.1.6 1.8.1 1 .1 2.2-.5 2.9-.9 1-2.9 2.2-3.9 1-1-1.2-1-4.4.2-5.5ZM62.5003 30.6c-.3-1.3-.5-2.9.4-3.8.6-.5 1.4-.7 2.1-.7.6 0 1.3.1 1.8.4.7.4 1.1 1.2 1.3 2 .2.8.1 1.6.1 2.4 0 .2 0 .5-.1.7-.1.3-.4.5-.7.6-2.4 1.5-4.2 1.2-4.9-1.6Z" fill="#1B383C" stroke="#1B383C" stroke-width="2" stroke-miterlimit="10"/><path d="M30.4004 29.8c-5.6 4.5-9.7 10.7-11.6 17.6-1.9 6.9-1.6 14.4.8 21.1M89.1001 21.8C98.7001 27.6 106.4 36.5 110.6 47c4.2 10.5 4.9 22.2 1.9 33M49.7003 41.8c-.3 8.1-.1 16.3.7 24.4M66.4004 41.5c.3 8.5 1.3 16.9 2.9 25.3" stroke="#1B383C" stroke-width="2" stroke-miterlimit="10"/></svg>
